icons/edit-2-line.svg

<svg xmlns="http://www.w3.org/2000/svg" width="24" height="24" fill="none"><g clip-path="url(#a)"><g><path fill="#121212" d="M5 19H6.414L15.728 9.68596L14.314 8.27196L5 17.586V19ZM21 21H3V16.757L16.435 3.32196C16.6225 3.13449 16.8768 3.02917 17.142 3.02917C17.4072 3.02917 17.6615 3.13449 17.849 3.32196L20.678 6.15096C20.8655 6.33849 20.9708 6.5928 20.9708 6.85796C20.9708 7.12313 20.8655 7.37743 20.678 7.56496L9.243 19H21V21ZM15.728 6.85796L17.142 8.27196L18.556 6.85796L17.142 5.44396L15.728 6.85796Z"/></g></g><defs><clipPath id="a"><rect width="24" height="24" fill="white"/></clipPath></defs></svg>

<svg width="24" height="24" fill="none" xmlns="http://www.w3.org/2000/svg"><g clip-path="url(#a)"><path d="M5 19h1.414l9.314-9.314-1.414-1.414L5 17.586V19Zm16 2H3v-4.243L16.435 3.322a1 1 0 0 1 1.414 0l2.829 2.829a1 1 0 0 1 0 1.414L9.243 19H21v2ZM15.728 6.858l1.414 1.414 1.414-1.414-1.414-1.414-1.414 1.414Z" /></g><defs><clipPath id="a"><path fill="#fff" d="M0 0h24v24H0z"/></clipPath></defs></svg>
